X:1
T:German Dance No. 3
T:German Dance No. 3
T:D. 420.3
T:Franz Schubert
T:Public Domain (PianoXML typeset) | 12 German Dances D.420 - 1817
C:Franz Schubert
Z:Public Domain (PianoXML typeset) | 12 German Dances D.420 - 1817
%%score { ( 1 4 ) | ( 2 3 ) }
L:1/8
Q:3/4=50
M:3/4
K:D
V:1 treble nm="Piano" snm="Pno."
V:4 treble 
V:2 bass 
V:3 bass 
V:1
!pp! d'e' | f'2 [ff']2 [ff']2 | !>![ff']4 [ee']2 | z2 [ee']2 [ee']2 | !>![ee']4 [dd']2 | %5
 z2 [ff']2!<(! [aa']2 | !>![aa']2 [gg']2 [ff']2!<)! | [ee']4 [ff']2 | [dd']4 :: de | %10
 f2 [^Af]2 [Af]2 | f2 g2 e2 | c2 ce a2 | a4 x2 | f2 [^Af]2 [Af]2 | f2 g2 e2 | c2 cd e2 |1 [Fd]4 :|2 %18
 [Fd]4 z2 |] %19
V:2
 z2 |!ped! x2 [A,D]2!ped-up! [^A,D]2 |!ped! x2 [B,E]2!ped-up! [B,E]2 | %3
!ped! x2 [CG]2!ped-up! [CG]2 |!ped! x2 [DF]2!ped-up! [DF]2 |!ped! x2 [A,D]2!ped-up! [=C^D]2 | %6
!ped! x2 [B,E]2!ped-up! [B,E]2 | A,4 A,2 | z4 :: z2 |!ped! x2 [CF]2!ped-up! [CF]2 | %11
!ped! x2 [B,E]2!ped-up! [B,E]2 |!ped! x2 [CE]2!ped-up! [A,E]2 |!ped! x2 [A,D]2!ped-up! z2 | %14
!ped! x2 [CF]2!ped-up! [CF]2 |!ped! x2 [B,E]2!ped-up! [B,E]2 |!ped! x2 E2!ped-up! [A,C]2 |1 %17
 [A,D]4 :|2 [A,D]4 z2 |] %19
V:3
 x2 | D,6 | G,6 | A,4 ^A,2 | B,6 | F,6 | G,6 | x6 | x4 :: x2 | F,6 | E,4 G,2 | A,4 G,2 | F,4 x2 | %14
 F,6 | E,4 G,2 | A,4 x2 |1 D,4 :|2 D,4 x2 |] %19
V:4
 x2 | x6 | x6 | x6 | x6 | x6 | x6 | z2!>(! [CG]2 [CA]2 | [DF]4!>)! :: x2 | x6 | B4 B2 | =A2 z2 c2 | %13
 d4 de | x6 | !>!B4 B2 | =A2 z2 G2 |1 x4 :|2 x6 |] %19

